source/img/icon_bus.svg

<svg width="18" height="21" viewBox="0 0 18 21" fill="none" xmlns="http://www.w3.org/2000/svg">
<g clip-path="url(#clip0)">
<path opacity="0.15" d="M4.34047 13.9485C4.34047 13.5699 4.20186 13.2467 3.92463 12.9788C3.64741 12.711 3.31289 12.5771 2.92108 12.5771C2.52927 12.5771 2.19475 12.711 1.91752 12.9788C1.6403 13.2467 1.50168 13.5699 1.50168 13.9485C1.50168 14.3271 1.6403 14.6503 1.91752 14.9181C2.19475 15.186 2.52927 15.3199 2.92108 15.3199C3.31289 15.3199 3.64741 15.186 3.92463 14.9181C4.20186 14.6503 4.34047 14.3271 4.34047 13.9485ZM15.6956 13.9485C15.6956 13.5699 15.557 13.2467 15.2798 12.9788C15.0026 12.711 14.668 12.5771 14.2762 12.5771C13.8844 12.5771 13.5499 12.711 13.2727 12.9788C12.9955 13.2467 12.8568 13.5699 12.8568 13.9485C12.8568 14.3271 12.9955 14.6503 13.2727 14.9181C13.5499 15.186 13.8844 15.3199 14.2762 15.3199C14.668 15.3199 15.0026 15.186 15.2798 14.9181C15.557 14.6503 15.6956 14.3271 15.6956 13.9485ZM15.1855 9.70563L14.3871 5.59135C14.3502 5.42706 14.267 5.29313 14.1376 5.18956C14.0082 5.08599 13.8585 5.0342 13.6885 5.0342H3.5088C3.33877 5.0342 3.18906 5.08599 3.05969 5.18956C2.93032 5.29313 2.84715 5.42706 2.81019 5.59135L2.01178 9.70563C1.97482 9.91992 2.02656 10.1092 2.16703 10.2735C2.30749 10.4378 2.48861 10.5199 2.71039 10.5199H14.4869C14.7087 10.5199 14.8898 10.4378 15.0303 10.2735C15.1707 10.1092 15.2225 9.91992 15.1855 9.70563ZM12.6794 3.14849C12.6794 3.00563 12.6277 2.88421 12.5242 2.78421C12.4207 2.68421 12.295 2.63421 12.1471 2.63421H5.05017C4.90232 2.63421 4.77664 2.68421 4.67314 2.78421C4.56965 2.88421 4.5179 3.00563 4.5179 3.14849C4.5179 3.29135 4.56965 3.41278 4.67314 3.51278C4.77664 3.61278 4.90232 3.66278 5.05017 3.66278H12.1471C12.295 3.66278 12.4207 3.61278 12.5242 3.51278C12.6277 3.41278 12.6794 3.29135 12.6794 3.14849ZM17.115 10.9163V17.3771H15.6956V18.7485C15.6956 19.1271 15.557 19.4503 15.2798 19.7181C15.0026 19.986 14.668 20.1199 14.2762 20.1199C13.8844 20.1199 13.5499 19.986 13.2727 19.7181C12.9955 19.4503 12.8568 19.1271 12.8568 18.7485V17.3771H4.34047V18.7485C4.34047 19.1271 4.20186 19.4503 3.92463 19.7181C3.64741 19.986 3.31289 20.1199 2.92108 20.1199C2.52927 20.1199 2.19475 19.986 1.91752 19.7181C1.6403 19.4503 1.50168 19.1271 1.50168 18.7485V17.3771H0.0822906V10.9163C0.0822906 10.1163 0.174699 9.31992 0.359516 8.52706L1.50168 3.66278C1.56822 3.10563 1.92861 2.61635 2.58286 2.19492C3.23712 1.77349 4.08727 1.45564 5.13334 1.24135C6.1794 1.02706 7.33451 0.919922 8.59866 0.919922C9.8628 0.919922 11.0179 1.02706 12.064 1.24135C13.11 1.45564 13.9602 1.77349 14.6144 2.19492C15.2687 2.61635 15.6291 3.10563 15.6956 3.66278L16.86 8.52706C17.03 9.25563 17.115 10.0521 17.115 10.9163Z" fill="#1D2E5B"/>
</g>
<defs>
<clipPath id="clip0">
<rect width="17.0398" height="19.2" fill="white" transform="translate(0.0795898 0.919922)"/>
</clipPath>
</defs>
</svg>

<svg focusable="false" role="img" width="18" height="21" fill="none" xmlns="http://www.w3.org/2000/svg"><g clip-path="url(#clip0)"><path opacity=".15" d="M4.34 13.948a1.3 1.3 0 00-.415-.97 1.392 1.392 0 00-1.004-.4c-.392 0-.726.133-1.003.4a1.3 1.3 0 00-.416.97c0 .38.138.702.416.97.277.268.611.402 1.003.402.392 0 .726-.134 1.004-.402.277-.268.415-.59.415-.97zm11.356 0a1.3 1.3 0 00-.416-.97 1.392 1.392 0 00-1.004-.4c-.392 0-.726.133-1.003.4a1.3 1.3 0 00-.416.97c0 .38.139.702.416.97.277.268.611.402 1.003.402.392 0 .727-.134 1.004-.402a1.3 1.3 0 00.416-.97zm-.51-4.242l-.799-4.115a.695.695 0 00-.25-.401.698.698 0 00-.449-.156H3.508c-.17 0-.319.052-.448.156a.695.695 0 00-.25.401l-.798 4.115a.661.661 0 00.155.568c.14.164.322.246.543.246h11.777a.682.682 0 00.543-.246.661.661 0 00.155-.568zm-2.507-6.558a.488.488 0 00-.155-.364.523.523 0 00-.377-.15H5.05a.523.523 0 00-.377.15.488.488 0 00-.155.364.523.523 0 00.532.514h7.097c.148 0 .274-.05.377-.15a.488.488 0 00.155-.364zm4.436 7.768v6.461h-1.42v1.372a1.3 1.3 0 01-.415.97 1.392 1.392 0 01-1.004.4c-.392 0-.726-.133-1.003-.4a1.3 1.3 0 01-.416-.97v-1.372H4.34v1.372c0 .378-.138.701-.415.97a1.392 1.392 0 01-1.004.4c-.392 0-.726-.133-1.003-.4a1.3 1.3 0 01-.416-.97v-1.372H.082v-6.46c0-.8.093-1.597.278-2.39l1.142-4.864c.066-.557.427-1.047 1.08-1.468.655-.422 1.505-.74 2.551-.954C6.18 1.027 7.335.92 8.6.92c1.264 0 2.419.107 3.465.321 1.046.215 1.896.532 2.55.954.655.421 1.015.91 1.082 1.468l1.164 4.864c.17.729.255 1.525.255 2.39z" fill="#1D2E5B"/></g><defs><clipPath id="clip0"><path fill="#fff" transform="translate(.08 .92)" d="M0 0h17.04v19.2H0z"/></clipPath></defs></svg>
